X:1
T:Hasten, Loyal Mortals
T:Hasten, Loyal Mortals
T:Charles Hutchinson Gabriel
T:Lizzie DeArmond, 1911
T:Public Domain Courtesy of the Cyber Hymnal™
T:Public Domain Courtesy of the Cyber Hymnal™
C:Charles Hutchinson Gabriel
Z:Public Domain
Z:Courtesy of the Cyber Hymnal™
%%score ( 1 2 ) ( 3 4 )
L:1/8
Q:1/4=115
M:4/4
K:G
V:1 treble 
V:2 treble 
V:3 bass 
V:4 bass 
V:1
 D2 E2 F2 G2 | [CA]4 [^C^A]4 | [DB]2 [Bd]2 [Be]2 [GB]2 | [DBd]6 z2 | [Fd]2 [FA]2 [^E^G]2 [FA]2 | %5
w: 1.~Hast- en, loy- al|mor- tals,|on- ward to the|star,|See its beams of|
w: 2.~March with joy and|glad- ness,|count- less voic- es|ring,|An- gels high in|
w: 3.~Hast- en, loy- al|mor- tals,|seek the man- ger|shrine,|Bring your pre- cious|
 [DBd]4 [DG]4 | [DF]2 [FA]2 [EG]2 [^CE]2 | (D6 FA) | [Ac]2 [GB]2 [FA]2 [^E^G]2 | [FA]4 D4 | %10
w: glo- ry|beck- on from a-|far; * *|Past, the night of|splen- dor,|
w: glo- ry|wor- ship- ping the|King; * *|Hail the Child of|bless- ing,|
w: trea- sures|to the Lord di-|vine; * *|Soon the great Mes-|si- ah|
 [Bd]2 [Ac]2 [GB]2 [FA]2 | [DGB]6 z2 | [CE]2 [DF]2 [DG]2 [DA]2 | [DGB]2 [Dc]2 [DGd]2 [Ge]2 | %14
w: dawns the prom- ised|morn;|Come re- joic- ing,|prais- es voic- ing,|
w: joy of all the|earth;|Watch- fires gleam- ing,|star- light beam- ing,|
w: shall your eyes be-|hold;|Hom- age ren- der,|sweet and ten- der,|
 [DB]4 [CA]4 | [B,G]6 z2 ||"^Refrain" d4 A4 | [Gd]4 [GB]4 | [Fc]2 [GB]2 [DA]2 [EG]2 | [FA]6 z2 | %20
w: Christ is|born.|March- ing|for- ward,|fol- low- ing the|star,|
w: greet His|birth.|||||
w: love’s pure|gold.|||||
 [Gd]2 [^EB]2 [Fc]2 [FA]2 | [Gd]2 [^EB]2 [Fc]2 [FA]2 | [FB]2 [^DA]2 [EG]2 [EA]2 | F3 z E D4 | %24
w: Shin- ing, beam- ing,|bright- ly gleam- ing|From the east- ern|skies a- far;|
w: ||||
w: ||||
 d4 A4 | [Gd]4 [GB]4 | [DG]2 [EG]2 [EA]2 [E^A]2 | [^DB]6 z2 | [CE]2 [DF]2 [DG]2 [DA]2 | %29
w: Joy- ful|prais- es|sing- ing all the|way!|Swell the sweet un-|
w: |||||
w: |||||
 [DB]2 [Dc]2 [Gd]2 [Ge]2 | [GB]4 [DA]4 | [DG]6 z2 |] %32
w: dy- ing song of|Christ- mas|Day.|
w: |||
w: |||
V:2
 B,4 B,4 | x8 | x8 | x8 | x8 | x8 | x8 | D6 x2 | x8 | x4 D4 | x8 | x8 | x8 | x8 | x8 | x8 || %16
 (F2 F2) (F2 A2) | x8 | x8 | x8 | x8 | x8 | x8 | (D2 ^C2) D4 x | (F2 F2) (F2 A2) | x8 | x8 | x8 | %28
 x8 | x8 | x8 | x8 |] %32
V:3
 G,4 D,4 | (^D,2 G,2) (F,2 E,2) | [G,,D,]2 z2 [D,G,B,]2 z2 | (G,,2 D,2 [G,B,]2 D,2) | %4
w: ~ ~|~ * ~ *|* ~|~ * * *|
 [D,A,C]2 z2 [D,A,C]2 z2 | (G,,2 G,2) (B,,2 _B,,2) | [A,,A,]2 z2 A,2 G,2 | [F,A,]6 z2 | %8
w: ~ ~|~ * ~ *|~ ~ ~|~|
 D,,2 z2 [F,A,D]2 z2 | (D,2 F,2) (A,2 C2) | D,2 z2 [F,A,D]2 z2 | (G,2 D,2 B,,2 G,,2) | %12
w: ~ ~|~ * ~ *|~ ~|~ * * *|
 [C,G,]2 [A,,A,]2 [B,,G,]2 [D,F,]2 | [G,,G,]2 [A,,F,]2 [B,,G,]2 [C,G,]2 | [D,G,]4 [D,F,]4 | %15
w: ~ ~ ~ ~|~ ~ ~ ~|~ ~|
 (G,2 D,B,,G,,A,,B,,C,) || [D,A,]2 [D,A,]2 [D,C]2 [F,C]2 | [G,B,]4 [G,D]4 | %18
w: March- * * * * * *|ing, march- ing, ~|~ ~|
 [A,D]2 [G,D]2 [F,D]2 [E,^C]2 | [D,D]6 z2 | [D,B,]2 [D,^G,]2 [D,A,]2 [D,C]2 | %21
w: ~ ~ ~ ~|~|~ ~ ~ ~|
 [D,B,]2 [D,^G,]2 [D,A,]2 [D,C]2 | [^D,B,]2 [F,B,]2 [E,B,]2 [^C,A,]2 | [D,A,]2 [A,,G,]2 [D,F,]4 x | %24
w: ~ ~ ~ ~|~ ~ ~ ~|~ ~ Joy-|
 [D,A,]2 [D,A,]2 [D,C]2 [F,C]2 | [G,B,]4 [G,D]4 | [G,B,]2 [E,B,]2 [C,C]2 (G,E,) | (F,2 A,4) z2 | %28
w: ful, joy- ful *||||
 [C,G,]2 [A,,A,]2 [B,,G,]2 [D,F,]2 | [G,,G,]2 [A,,F,]2 [B,,A,]2 [C,G,]2 | [D,D]4 [D,C]4 | %31
w: |||
 [G,,B,]6 z2 |] %32
w: |
V:4
 G,,8- | G,,8- | x8 | x8 | x8 | x8 | x4 A,,4 | (D,2 A,,2 D,,2) x2 | x8 | x8 | x8 | x8 | x8 | x8 | %14
 x8 | x8 || x8 | x8 | x8 | x8 | x8 | x8 | x8 | x9 | x8 | x8 | x6 C,2 | B,,6 x2 | x8 | x8 | x8 | %31
 x8 |] %32

